X: 1
T:Ballintore Fancy, The
R:single jig
S:Leo Rowsome
Z:transcribed during IRTRAD Bothy Band Old Hag You Have Killed Me project id:ng-jigs-8
E:12
I:speed 470
M:12/8
K:G
|G2 B ~B3 G2 B d2B|G2 B ~B3 F2A cAF|G2 B ~B3 G2 B d2 g|e2c A2G F2G AFD::\
|B2 E ~E3 B2 E G2 A|B2E ~E3 AFD G2A|B2E ~E3 c3 B3|A2G F2G AFD G2 A:|**
